!!!COM: Beethoven
!!!OTL: 13 Variationen uber "Es war einmal ein alter Mann" aus "Das rote Kappchen" von K. Ditters von Dittersdorf
!!!Variation: Variation 6 f
**function	**harm	**kern	**kern	**kern
*M2/4	*M2/4	*staff3	*staff2	*staff1
*tb8	*	*clefF4	*clefF4	*clefG2
*	*	*k[f#c#g#]	*k[f#c#g#]	*k[f#c#g#]
*	*	*M2/4	*M2/4	*M2/4
*	*	*A:	*A:	*A:
4T	4i	8AAL	4E]	8eL
.	.	8CJ)	.	[8fJ
=	=	=252	=252	=252
2T	2V6	(8GG#L	2E	4f]
.	.	8BBJ	.	.
.	.	8GG#L	.	8eL
.	.	8BBJ)	.	8dJ
=	=	=253	=253	=253
2T	2i	(8AAL	2E	8cL
.	.	8CJ	.	8g#J
.	.	8AAL	.	8aL
.	.	8CJ)	.	[8fJ
=	=	=254	=254	=254
2T	2V6	(8GG#L	[2E	8f]
.	.	8BBJ	.	4e
.	.	8GG#L	.	.
.	.	8BBJ)	.	8d
=	=	=255	=255	=255
4T	4i	4AA	8EL]	4c
.	.	.	(8EJ	.
4T	4V7	8r	4D	4G# 4B
.	.	8EE	.	.
=	=	=256	=256	=256
4T	4VI	8r	4C)	4A)
.	.	4.FF	.	.
4T	4iv	.	(8C#L	([4A 4a
.	.	.	8DJ	.
=	=	=257	=257	=257
4T	4i64	8r	4.E	4A] 4c
.	.	4.EE	.	.
4T	4V7	.	.	4G# 4B
.	.	.	8D	.
=	=	=258	=258	=258
4T	4VI	8r	4C)	4A)
.	.	4.FF	.	.
4P	4iv	.	(8C#L	([4A 4a
.	.	.	8DJ	.
=	=	=259	=259	=259
4D	4i64	8r	4.E	4A] 4c
.	.	4.EE	.	.
4D	4V7	.	.	4G# 4B
.	.	.	8D)	.
=	=	=	=	=
4.T	4.i	4.AA;	4.C;	4.A;)
*	*	*||	*||	*||
*-	*-	*-	*-	*-
